src/assets/img/aetm-fleche-tasse.svg

<?xml version="1.0" encoding="UTF-8"?>
<svg width="57px" height="93px" viewBox="0 0 57 93" version="1.1" xmlns="http://www.w3.org/2000/svg" xmlns:xlink="http://www.w3.org/1999/xlink">
    <!-- Generator: sketchtool 41 (35326) - http://www.bohemiancoding.com/sketch -->
    <title>255FD8B9-7DE0-4DD2-9D95-A633AEFAB38A</title>
    <desc>Created with sketchtool.</desc>
    <defs></defs>
    <g id="Page-1" stroke="none" stroke-width="1" fill="none" fill-rule="evenodd">
        <g id="aetm-web-home" transform="translate(-676.000000, -4066.000000)" stroke="#259CC2">
            <g id="fleche-tasse" transform="translate(676.000000, 4066.000000)">
                <g id="Page-1-Copy-4" stroke-linecap="round">
                    <path d="M46.9585441,27.6182524 C46.9585441,40.5233781 42.7350798,57.3900976 23.7351896,57.3900976 C4.73792973,57.3900976 0.514465448,40.5233781 0.514465448,27.6182524 L46.9585441,27.6182524 Z" id="Stroke-1"></path>
                    <path d="M3,58 L47,58" id="Stroke-3"></path>
                    <path d="M56.4855346,40.1224274 C56.4855346,43.0814372 54.0850307,45.4813595 51.1253039,45.4813595 C48.1655771,45.4813595 45.7676703,43.0814372 45.7676703,40.1224274 C45.7676703,37.1634175 48.1655771,34.7634952 51.1253039,34.7634952 C54.0850307,34.7634952 56.4855346,37.1634175 56.4855346,40.1224274 Z" id="Stroke-5"></path>
                    <path d="M17.7826356,16.9003881 C15.7189821,14.220922 19.8442895,8.86198986 17.7826356,6.18252379" id="Stroke-7"></path>
                    <path d="M22.5456309,16.9003881 C20.482977,14.1216825 24.6082849,3.00686029 22.5456309,0.228154732" id="Stroke-9"></path>
                    <path d="M28.5,17 C26.7679492,14.25 30.2320508,8.75 28.5,6" id="Stroke-11"></path>
                </g>
                <g id="Group-2-Copy" transform="translate(11.000000, 61.000000)">
                    <g id="Group-4">
                        <g id="Page-1" transform="translate(0.000000, 19.000000)">
                            <polyline id="Stroke-4" points="26 0 12.9722255 12 0 0.0513724503"></polyline>
                        </g>
                        <path d="M13,30.2619048 L13,0.738095238" id="Line" stroke-linecap="square"></path>
                    </g>
                </g>
            </g>
        </g>
    </g>
</svg>

<svg width="57" height="93" viewBox="0 0 57 93" xmlns="http://www.w3.org/2000/svg"><g stroke="#259CC2" fill="none" fill-rule="evenodd"><g stroke-linecap="round"><path d="M46.96 27.618c0 12.905-4.225 29.772-23.225 29.772C4.738 57.39.515 40.523.515 27.618h46.444zM3 58h44"/><path d="M56.486 40.122c0 2.96-2.4 5.36-5.36 5.36-2.96 0-5.358-2.4-5.358-5.36 0-2.96 2.398-5.36 5.357-5.36 2.96 0 5.36 2.4 5.36 5.36zM17.783 16.9c-2.064-2.68 2.06-8.038 0-10.717M22.546 16.9c-2.063-2.778 2.062-13.893 0-16.672M28.5 17c-1.732-2.75 1.732-8.25 0-11"/></g><path d="M37 80L23.972 92 11 80.05"/><path d="M24 91.262V61.738" stroke-linecap="square"/></g></svg>
